symbolic/status/display-brightness-high-symbolic.svg

<svg xmlns="http://www.w3.org/2000/svg" width="16" height="16"><path d="M8 .72L5.81 3H3v2.81L.72 8 3 10.22V13h2.81L8 15.28 10.22 13H13v-2.78L15.28 8 13 6V3h-2.78zM8 4c2.21 0 4 1.79 4 4s-1.79 4-4 4-4-1.79-4-4 1.79-4 4-4zm0 1a3 3 0 1 0 0 6 3 3 0 0 0 0-6z" fill="#f8f8f2"/></svg>

<svg xmlns="http://www.w3.org/2000/svg" width="16" height="16" version="1.1">
 <path style="fill:#dfdfdf" d="M 8,0.72 5.81,3 H 3 V 5.81 L 0.72,8 3,10.22 V 13 H 5.81 L 8,15.28 10.22,13 H 13 V 10.22 L 15.28,8 13,6 V 3 H 10.22 Z M 8,4 C 10.21,4 12,5.79 12,8 12,10.21 10.21,12 8,12 5.79,12 4,10.21 4,8 4,5.79 5.79,4 8,4 Z M 8,5 C 6.3431,5 5,6.3431 5,8 5,9.6569 6.3431,11 8,11 9.6569,11 11,9.6569 11,8 11,6.3431 9.6569,5 8,5 Z"/>
</svg>
